packages/icons/svg/24/AddModel.svg

<svg width="24" height="24" viewBox="0 0 24 24" fill="none" xmlns="http://www.w3.org/2000/svg">
<path d="M14 4C14 5.10457 13.1046 6 12 6C10.8954 6 10 5.10457 10 4C10 2.89543 10.8954 2 12 2C13.1046 2 14 2.89543 14 4Z" fill="#858585"/>
<path fill-rule="evenodd" clip-rule="evenodd" d="M6.00001 8C6.00001 7.44772 6.44772 7 7.00001 7H17C17.5523 7 18 7.44772 18 8C18 8.55228 17.5523 9 17 9H14.5V17C14.5 17.5523 14.0523 18 13.5 18C12.9477 18 12.5 17.5523 12.5 17V13H11.5V17C11.5 17.5523 11.0523 18 10.5 18C9.94772 18 9.50001 17.5523 9.50001 17V9H7.00001C6.44772 9 6.00001 8.55228 6.00001 8ZM11.5 9V11H12.5V9H11.5Z" fill="#858585"/>
<path d="M6.00001 11C5.56958 11 5.18744 11.2754 5.05132 11.6838L2.05132 20.6838C1.94967 20.9887 2.00081 21.3239 2.18877 21.5847C2.37672 21.8455 2.67856 22 3.00001 22H21C21.3215 22 21.6233 21.8455 21.8113 21.5847C21.9992 21.3239 22.0503 20.9887 21.9487 20.6838L18.9487 11.6838C18.8126 11.2754 18.4304 11 18 11H17.5C16.9477 11 16.5 11.4477 16.5 12C16.5 12.4733 16.8288 12.8698 17.2704 12.9735L19.6126 20H4.38743L6.72959 12.9735C7.17122 12.8698 7.50001 12.4733 7.50001 12C7.50001 11.4477 7.05229 11 6.50001 11H6.00001Z" fill="#858585"/>
<path d="M14 4C14 5.10457 13.1046 6 12 6C10.8954 6 10 5.10457 10 4C10 2.89543 10.8954 2 12 2C13.1046 2 14 2.89543 14 4Z" stroke="white"/>
<path fill-rule="evenodd" clip-rule="evenodd" d="M6.00001 8C6.00001 7.44772 6.44772 7 7.00001 7H17C17.5523 7 18 7.44772 18 8C18 8.55228 17.5523 9 17 9H14.5V17C14.5 17.5523 14.0523 18 13.5 18C12.9477 18 12.5 17.5523 12.5 17V13H11.5V17C11.5 17.5523 11.0523 18 10.5 18C9.94772 18 9.50001 17.5523 9.50001 17V9H7.00001C6.44772 9 6.00001 8.55228 6.00001 8ZM11.5 9V11H12.5V9H11.5Z" stroke="white"/>
<path d="M6.00001 11C5.56958 11 5.18744 11.2754 5.05132 11.6838L2.05132 20.6838C1.94967 20.9887 2.00081 21.3239 2.18877 21.5847C2.37672 21.8455 2.67856 22 3.00001 22H21C21.3215 22 21.6233 21.8455 21.8113 21.5847C21.9992 21.3239 22.0503 20.9887 21.9487 20.6838L18.9487 11.6838C18.8126 11.2754 18.4304 11 18 11H17.5C16.9477 11 16.5 11.4477 16.5 12C16.5 12.4733 16.8288 12.8698 17.2704 12.9735L19.6126 20H4.38743L6.72959 12.9735C7.17122 12.8698 7.50001 12.4733 7.50001 12C7.50001 11.4477 7.05229 11 6.50001 11H6.00001Z" stroke="white"/>
</svg>

<svg width="24" height="24" fill="none" xmlns="http://www.w3.org/2000/svg" viewBox="0 0 24 24"><path d="M14 4a2 2 0 11-4 0 2 2 0 014 0z" fill="currentColor"></path><path fill-rule="evenodd" clip-rule="evenodd" d="M6 8a1 1 0 011-1h10a1 1 0 110 2h-2.5v8a1 1 0 11-2 0v-4h-1v4a1 1 0 11-2 0V9H7a1 1 0 01-1-1zm5.5 1v2h1V9h-1z" fill="currentColor"></path><path d="M6 11a1 1 0 00-.949.684l-3 9A1 1 0 003 22h18a1 1 0 00.949-1.316l-3-9A1 1 0 0018 11h-.5a1 1 0 00-.23 1.973L19.613 20H4.387l2.343-7.027A1 1 0 006.5 11H6z" fill="currentColor"></path><path d="M14 4a2 2 0 11-4 0 2 2 0 014 0z" stroke="#fff"></path><path clip-rule="evenodd" d="M6 8a1 1 0 011-1h10a1 1 0 110 2h-2.5v8a1 1 0 11-2 0v-4h-1v4a1 1 0 11-2 0V9H7a1 1 0 01-1-1zm5.5 1v2h1V9h-1z" stroke="#fff"></path><path d="M6 11a1 1 0 00-.949.684l-3 9A1 1 0 003 22h18a1 1 0 00.949-1.316l-3-9A1 1 0 0018 11h-.5a1 1 0 00-.23 1.973L19.613 20H4.387l2.343-7.027A1 1 0 006.5 11H6z" stroke="#fff"></path></svg>
